X: 325
T: Mangupsko Kolo
O: Serbia
F: http://www.youtube.com/watch?v=KxDPJeu6S-Y
F: http://www.youtube.com/watch?v=uoPI6ceh0GY
F: http://www.youtube.com/watch?v=XWv6Xyw_3co
M: 2/4
L: 1/8
Q:1/4=96
K: Em clef=treble
"C"GA_BA|GFGE|\
Q:1/4=120
%%MIDI gchordoff
=FEFG|E4|z4|\
Q:1/4=96
%%MIDI gchordon
c_BAG|GFGE|\
Q:1/4=120
%%MIDI gchordoff
=FEFG|E4|z4|
|:G,/F,/G,C/B,/C|E/^D/EG2|=FEFG|E4|z4:|



